X:30
T:Minúett ur Andreas Hööks notbok
T:(SmM IX:30)
R:Menuett
B:Småländsk Musiktradition
S:Andreas Höök
O:Högabråten, Åker socken; Växjö, Småland
N:ca 1685
M:3/4
L:1/8
K:C
e2 c2 g2|e2 fe dc|d2 G2 c2|cB cd cd|e2 c2 g2|e2 fe dc|d2 G2 c2|c4 z2:|
g2 g2 a2|g3 f e2|f2 d2 g2|e4 c2|d2 ed cB|c2 A2 d2|G2 AG ^F2|G6|
c4 d2|e3 d c2|g2 e2 f2|gf ga g2|a2 g3 f|e3 f g2|fe d3 c|c6||

